X:1
T:Some Sweet Day
T:Daniel Brink Towner
T:Some Sweet Day
T:Public Domain
T:Public Domain
C:Daniel Brink Towner
Z:Public Domain
%%score ( 1 2 ) ( 3 4 )
L:1/8
M:3/4
K:G
V:1 treble 
V:2 treble 
V:3 bass 
V:4 bass 
V:1
 [DG]>[DA] | [GB]3 [DG] [FA]>[FB] | G4 [DG]>[GB] | [Gd]4 [GB]>G | [FA]4 [DG]>[DA] | %5
w: 1.~We shall|reach the riv- er|side Some sweet|some sweet day;|shall cross the|
w: 2.~We shall|pass in- side the|gate, Some sweet|some sweet day;|and plen- ty|
w: 3.~We shall|meet our loved and|own Some sweet|some sweet day;|’ring round the|
 [GB]3 [DG] [FA]>[FB] | G4 [EG]>[CE] | [B,D]4 [CA]>[DB] | [B,G]4 [GB]>[Ac] | [Bd]3 [ce] [Bd]>[GB] | %10
w: storm- y tide Some|sweet day, some|day; We shall|press the sands|of gold, While be-|
w: for us wait Some|sweet day, some|day; We shall|hear the wond-|rous strain, Glo- ry|
w: great white throne Some|sweet day, some|day; By the|tree of life|so fair, Joy and|
 [Bd]4 [GB]>[FA] | [EG]3 [EG] [FA]>[GB] | [FA]4 [GB]>[Ac] | [Bd]3 [GB] [EA]>[EG] | %14
w: fore our eyes|un- fold Heav- en’s|splen- dors, yet|un- told, Some sweet|
w: to the Lamb|that’s slain, Christ was|dead, but lives|a- gain, Some sweet|
w: rap- ture ev-|ery- where, O the|bliss of o-|ver there! Some sweet|
 [CE]4 [EG]>[_EA] | [DB]4 [CA]>[DB] | [B,G]4 |] %17
w: day, some sweet|day. * *||
w: day, some sweet|day. * *||
w: day, some sweet|day. * *||
V:2
 x2 | x6 | G4 x2 | x11/2 G/ | x6 | x6 | G4 x2 | x6 | x6 | x6 | x6 | x6 | x6 | x6 | x6 | x6 | x4 |] %17
w: ||day,|We|||sweet|||||||||||
w: ||day,|Peace|||sweet|||||||||||
w: ||day,|Gath-|||sweet|||||||||||
V:3
 [G,B,]>[G,C] | [G,D]3 [G,B,] [D,C]>[D,D] | [G,B,]4 [G,B,]>[G,D] | [G,B,]4 [G,D]>[G,B,] | %4
 [D,D]4 [G,B,]>[G,C] | [G,D]3 [G,B,] [D,C]>[D,D] | [G,B,]4 [C,C]>[C,G,] | G,4 [D,F,]>[D,F,] | %8
 [G,,G,]4 G,>[G,A,] | [G,B,]3 [G,C] [G,B,]>G, | [G,B,]4 [G,D]>[D,C] | [E,B,]3 [E,B,] [D,D]>[G,D] | %12
 [D,D]4 G,>[G,A,] | [G,B,]3 [G,D] [C,C]>[C,C] | [C,G,]4 [C,C]>[C,C] | G,4 [D,F,]>[D,F,] | %16
 [G,,G,]4 |] %17
V:4
 x2 | x6 | x6 | x6 | x6 | x6 | x6 | G,4 x2 | x4 G,3/2 x/ | x11/2 G,/ | x6 | x6 | x4 G,3/2 x/ | x6 | %14
 x6 | G,4 x2 | x4 |] %17

